X: 1
T: Eileen O'Brien's
M: 4/4
L: 1/8
R: reel
K: Cmaj
c2Gc AGED|CDEG cGBd|cG~G2 AGEG|cAGE DCA,C|
G,A,CD EG~G2|AG^FA GABG|cBcd cAGA|cAGE DdcB:|
|:c2ec GAcd|egde cBGA|_B2dB fBdB|c_BGA BG~G2|
cdec GAcd|egde cBG^f|g=fdc Bcdc|BGFD CDEG:|
